X:102
T:Drink to me only with thine Eyes.2voices. JJo.102
S:J.Jones MS,1801,N.Shrops.
N:Unusually, no repeat marks at end of the first line.
A:N Shropshire
Z:Neil Brookes
M:6/8
L:1/8
Q:1/4=80
K:C
[V:1]eeef2″^g in MS”f|gfe def|gcf e2d|c4||!
[V:2]ccc d2d|edc Bcd|e2dc2G|E4||!
[V:1]g|geg c’2g|geg g2g|a2gf2e|e3d2z|!
[V:2]e|ece e2e|ecee2e|f2ed2c|c3B2z|
[V:1]eeef2f|gfe def|gcf e2d|c4z2|]
[V:2]ccc d2d|edc Bcd|e2dc2G|E4z2|]

